images/github.svg

<?xml version="1.0" encoding="UTF-8" standalone="no"?>
<svg width="33px" height="32px" viewBox="0 0 33 32" version="1.1" xmlns="http://www.w3.org/2000/svg" xmlns:xlink="http://www.w3.org/1999/xlink">
    <!-- Generator: Sketch 3.6.1 (26313) - http://www.bohemiancoding.com/sketch -->
    <title>Page 1</title>
    <desc>Created with Sketch.</desc>
    <defs>
        <path id="path-1" d="M0.0005,31.7746 L32.579,31.7746 L32.579,-3.55271368e-15 L0.0005,-3.55271368e-15 L0.0005,31.7746 L0.0005,31.7746 Z"></path>
    </defs>
    <g id="Page-1" stroke="none" stroke-width="1" fill="none" fill-rule="evenodd">
        <g>
            <mask id="mask-2" fill="white">
                <use xlink:href="#path-1"></use>
            </mask>
            <g id="Clip-2"></g>
            <path d="M16.2885,-3.55271368e-15 C7.2935,-3.55271368e-15 0.0005,7.293 0.0005,16.29 C0.0005,23.487 4.6675,29.592 11.1405,31.747 C11.9555,31.896 12.2525,31.393 12.2525,30.961 C12.2525,30.575 12.2385,29.55 12.2305,28.191 C7.6995,29.175 6.7435,26.007 6.7435,26.007 C6.0025,24.126 4.9345,23.624 4.9345,23.624 C3.4555,22.614 5.0465,22.634 5.0465,22.634 C6.6815,22.749 7.5415,24.313 7.5415,24.313 C8.9945,26.802 11.3545,26.083 12.2825,25.667 C12.4305,24.614 12.8505,23.896 13.3165,23.489 C9.6995,23.078 5.8965,21.68 5.8965,15.438 C5.8965,13.66 6.5315,12.206 7.5735,11.067 C7.4055,10.655 6.8465,8.999 7.7325,6.756 C7.7325,6.756 9.1005,6.318 12.2125,8.426 C13.5115,8.064 14.9055,7.884 16.2905,7.878 C17.6735,7.884 19.0675,8.064 20.3685,8.426 C23.4785,6.318 24.8435,6.756 24.8435,6.756 C25.7325,8.999 25.1735,10.655 25.0055,11.067 C26.0495,12.206 26.6805,13.66 26.6805,15.438 C26.6805,21.696 22.8715,23.073 19.2425,23.476 C19.8275,23.979 20.3485,24.973 20.3485,26.493 C20.3485,28.67 20.3285,30.427 20.3285,30.961 C20.3285,31.397 20.6215,31.904 21.4485,31.745 C27.9165,29.586 32.5795,23.485 32.5795,16.29 C32.5795,7.293 25.2855,-3.55271368e-15 16.2885,-3.55271368e-15" id="Fill-1" fill="#181616" mask="url(#mask-2)"></path>
        </g>
    </g>
</svg>

<svg width="33" height="32" viewBox="0 0 33 32" xmlns="http://www.w3.org/2000/svg" xmlns:xlink="http://www.w3.org/1999/xlink"><title>Page 1</title><defs><path id="a" d="M0 31.775h32.58V0H0v31.775z"/></defs><g fill="none" fill-rule="evenodd"><mask id="b" fill="#fff"><use xlink:href="#a"/></mask><path d="M16.288 0C7.293 0 0 7.293 0 16.29c0 7.197 4.668 13.302 11.14 15.457.816.15 1.112-.354 1.112-.786 0-.385-.014-1.41-.022-2.77-4.53.985-5.487-2.183-5.487-2.183-.74-1.88-1.81-2.383-1.81-2.383-1.478-1.01.114-.99.114-.99 1.635.115 2.495 1.68 2.495 1.68 1.453 2.488 3.813 1.77 4.74 1.353.15-1.053.57-1.77 1.034-2.178-3.617-.412-7.42-1.81-7.42-8.052 0-1.778.636-3.232 1.678-4.37-.168-.413-.728-2.07.16-4.312-.002 0 1.367-.438 4.479 1.67 1.3-.362 2.693-.542 4.078-.548 1.384.006 2.777.186 4.08.548 3.108-2.108 4.473-1.67 4.473-1.67.89 2.243.33 3.9.163 4.31 1.043 1.14 1.674 2.594 1.674 4.372 0 6.258-3.808 7.635-7.438 8.038.585.503 1.107 1.497 1.107 3.017-.002 2.177-.022 3.934-.022 4.468 0 .437.294.944 1.12.785 6.468-2.16 11.132-8.26 11.132-15.455C32.58 7.293 25.286 0 16.29 0" fill="#181616" mask="url(#b)"/></g></svg>
